src/catppuccin-mocha-mauve-cursors/wait-02_24.svg

<?xml version="1.0" encoding="UTF-8" standalone="no"?>
<svg
   id="svg5327"
   width="24"
   height="24"
   version="1.1"
   sodipodi:docname="wait-02_24.svg"
   inkscape:version="1.1.2 (0a00cf5339, 2022-02-04)"
   xmlns:inkscape="http://www.inkscape.org/namespaces/inkscape"
   xmlns:sodipodi="http://sodipodi.sourceforge.net/DTD/sodipodi-0.dtd"
   xmlns:xlink="http://www.w3.org/1999/xlink"
   xmlns="http://www.w3.org/2000/svg"
   xmlns:svg="http://www.w3.org/2000/svg">
  <sodipodi:namedview
     id="namedview22"
     pagecolor="#ffffff"
     bordercolor="#666666"
     borderopacity="1.0"
     inkscape:pageshadow="2"
     inkscape:pageopacity="0.0"
     inkscape:pagecheckerboard="0"
     showgrid="false"
     inkscape:snap-bbox="true"
     inkscape:snap-bbox-midpoints="true"
     inkscape:zoom="13.12"
     inkscape:cx="16.006098"
     inkscape:cy="16.006098"
     inkscape:window-width="1896"
     inkscape:window-height="1020"
     inkscape:window-x="9"
     inkscape:window-y="45"
     inkscape:window-maximized="1"
     inkscape:current-layer="svg5327" />
  <defs
     id="defs5329">
    <filter
       id="filter837"
       style="color-interpolation-filters:sRGB"
       width="1.12"
       height="1.12"
       x="-0.059999999"
       y="-0.059999999">
      <feGaussianBlur
         id="feGaussianBlur839"
         stdDeviation=".55" />
    </filter>
    <linearGradient
       id="linearGradient832"
       x1="21"
       x2="25"
       y1="16"
       y2="28"
       gradientTransform="matrix(1.1888112,0,0,1.1888112,-14.248251,-15.248253)"
       gradientUnits="userSpaceOnUse"
       xlink:href="#linearGradient830" />
    <linearGradient
       id="linearGradient830">
      <stop
         id="stop826"
         style="stop-color:#ffffff;stop-opacity:1"
         offset="0" />
      <stop
         id="stop828"
         style="stop-color:#ffffff;stop-opacity:0"
         offset="1" />
    </linearGradient>
    <filter
       id="filter862"
       style="color-interpolation-filters:sRGB"
       width="1.12"
       height="1.12"
       x="-0.059999999"
       y="-0.059999999">
      <feGaussianBlur
         id="feGaussianBlur864"
         stdDeviation=".4" />
    </filter>
    <filter
       id="filter835"
       style="color-interpolation-filters:sRGB"
       width="1.1439988"
       height="1.1439984"
       x="-0.071999421"
       y="-0.071999216">
      <feGaussianBlur
         id="feGaussianBlur837"
         stdDeviation=".48" />
    </filter>
    <filter
       id="filter839"
       style="color-interpolation-filters:sRGB"
       width="1.1440001"
       height="1.1440001"
       x="-0.072000004"
       y="-0.072000004">
      <feGaussianBlur
         id="feGaussianBlur841"
         stdDeviation=".66" />
    </filter>
    <filter
       inkscape:collect="always"
       style="color-interpolation-filters:sRGB"
       id="filter975"
       x="-0.023520001"
       y="-0.023520001"
       width="1.04704"
       height="1.04704">
      <feGaussianBlur
         inkscape:collect="always"
         stdDeviation="0.1666"
         id="feGaussianBlur977" />
    </filter>
    <linearGradient
       id="linearGradient832-3"
       x1="21"
       x2="25"
       y1="16"
       y2="28"
       gradientTransform="matrix(1.1538462,0,0,1.1538462,-13.461538,-14.461539)"
       gradientUnits="userSpaceOnUse"
       xlink:href="#linearGradient830" />
    <filter
       id="filter831"
       style="color-interpolation-filters:sRGB"
       width="1.1450988"
       height="1.142668"
       x="-0.072549419"
       y="-0.071333981">
      <feGaussianBlur
         id="feGaussianBlur833"
         stdDeviation=".475" />
    </filter>
  </defs>
  <circle
     id="circle937"
     style="opacity:0.1;fill:#000000;fill-opacity:1;stroke:none;stroke-width:1.7;stroke-linecap:round;stroke-linejoin:round;stroke-miterlimit:4;stroke-dasharray:none;stroke-opacity:1;filter:url(#filter975)"
     cx="13"
     cy="12"
     r="8.5" />
  <circle
     id="path818"
     style="fill:#1E1E2E;fill-opacity:1;stroke:none;stroke-width:1.7;stroke-linecap:round;stroke-linejoin:round;stroke-miterlimit:4;stroke-dasharray:none;stroke-opacity:1"
     cx="12.5"
     cy="11.5"
     r="8.5" />
  <circle
     id="circle824"
     style="fill:#CBA6F7;fill-opacity:1;stroke:none;stroke-width:1.5;stroke-linecap:round;stroke-linejoin:round;stroke-miterlimit:4;stroke-dasharray:none;stroke-opacity:1"
     cx="12.5"
     cy="11.5"
     r="7.5" />
  <path
     id="path824"
     style="opacity:0.2;fill:#CBA6F7;fill-opacity:1;stroke:none;stroke-width:2.72727;stroke-linecap:round;stroke-linejoin:round;stroke-miterlimit:4;stroke-dasharray:none;stroke-opacity:1"
     d="M 20,11.5 A 7.5,7.5 0 0 1 12.5,19 7.5,7.5 0 0 1 5,11.5 7.5,7.5 0 0 1 12.5,3.9999996 7.5,7.5 0 0 1 20,11.5 Z" />
  <path
     id="path821"
     style="color:#000000;font-style:normal;font-variant:normal;font-weight:normal;font-stretch:normal;font-size:medium;line-height:normal;font-family:sans-serif;font-variant-ligatures:normal;font-variant-position:normal;font-variant-caps:normal;font-variant-numeric:normal;font-variant-alternates:normal;font-feature-settings:normal;text-indent:0;text-align:start;text-decoration:none;text-decoration-line:none;text-decoration-style:solid;text-decoration-color:#000000;letter-spacing:normal;word-spacing:normal;text-transform:none;writing-mode:lr-tb;direction:ltr;text-orientation:mixed;dominant-baseline:auto;baseline-shift:baseline;text-anchor:start;white-space:normal;shape-padding:0;clip-rule:nonzero;display:inline;overflow:visible;visibility:visible;opacity:0.2;isolation:auto;mix-blend-mode:normal;color-interpolation:sRGB;color-interpolation-filters:linearRGB;solid-color:#000000;solid-opacity:1;vector-effect:none;fill:#000000;fill-opacity:1;fill-rule:nonzero;stroke:none;stroke-width:1.00069;stroke-linecap:round;stroke-linejoin:round;stroke-miterlimit:4;stroke-dasharray:none;stroke-dashoffset:0;stroke-opacity:1;filter:url(#filter831);color-rendering:auto;image-rendering:auto;shape-rendering:auto;text-rendering:auto;enable-background:accumulate"
     d="M 16.761399,8.5135424 C 15.274498,8.4686229 13.79083,8.8324032 12.482102,9.5877611 10.487848,10.738782 9.093229,12.684783 8.6578833,14.933464 a 0.50330224,0.49792399 15 1 0 0.9863281,0.193359 C 10.025241,13.158704 11.242525,11.454547 12.987961,10.447136 14.733395,9.4397255 16.836494,9.2287279 18.759446,9.867058 A 0.50348212,0.49810195 15 1 0 19.073899,8.9217455 C 18.799265,8.8305795 18.523687,8.7561014 18.243821,8.695183 17.754055,8.5885772 17.257032,8.5285155 16.761399,8.5135424 Z m -0.578125,2.9882806 c -0.323132,0.02243 -0.645116,0.07773 -0.960938,0.164063 -0.180468,0.04933 -0.357519,0.109319 -0.533203,0.179687 a 0.4979601,0.49593692 75 1 0 0.369141,0.923828 c 1.12501,-0.4506 2.394783,-0.357564 3.447265,0.248047 1.052482,0.60561 1.770645,1.65643 1.953125,2.859375 a 0.49808729,0.49606359 75 1 0 0.978516,-0.148437 c -0.227978,-1.502849 -1.126538,-2.821535 -2.441406,-3.578125 -0.862881,-0.496512 -1.843106,-0.715726 -2.8125,-0.648438 z m -4.126953,5.173828 a 0.50007549,0.49606359 75 0 0 -0.146485,0.01953 0.50007549,0.49606359 75 0 0 -0.353515,0.554688 c 0.229537,1.508668 1.129338,2.83303 2.445312,3.59375 1.315975,0.760719 2.905253,0.874173 4.310547,0.310547 a 0.49994779,0.49593692 75 1 0 -0.371094,-0.927735 c -1.124861,0.451154 -2.393897,0.358917 -3.447265,-0.25 -1.053369,-0.608916 -1.773303,-1.665439 -1.957032,-2.873046 a 0.50007549,0.49606359 75 0 0 -0.480468,-0.427734 z m 11.779297,0.777344 a 0.50329883,0.49890424 15 0 0 -0.476563,0.404297 c -0.382049,1.971921 -1.599553,3.67933 -3.345703,4.689453 -1.746152,1.010124 -3.85056,1.222537 -5.773438,0.583984 a 0.50342826,0.49903254 15 1 0 -0.314453,0.947266 c 2.196991,0.729581 4.600631,0.484199 6.595703,-0.669922 1.995073,-1.15412 3.389662,-3.10635 3.826172,-5.359375 a 0.50329883,0.49890424 15 0 0 -0.363281,-0.578125 0.50329883,0.49890424 15 0 0 -0.148437,-0.01758 z"
     transform="matrix(0.75,0,0,0.75,0.5,-0.49999955)" />
  <path
     id="path847"
     style="color:#000000;font-style:normal;font-variant:normal;font-weight:normal;font-stretch:normal;font-size:medium;line-height:normal;font-family:sans-serif;font-variant-ligatures:normal;font-variant-position:normal;font-variant-caps:normal;font-variant-numeric:normal;font-variant-alternates:normal;font-feature-settings:normal;text-indent:0;text-align:start;text-decoration:none;text-decoration-line:none;text-decoration-style:solid;text-decoration-color:#000000;letter-spacing:normal;word-spacing:normal;text-transform:none;writing-mode:lr-tb;direction:ltr;text-orientation:mixed;dominant-baseline:auto;baseline-shift:baseline;text-anchor:start;white-space:normal;shape-padding:0;clip-rule:nonzero;display:inline;overflow:visible;visibility:visible;isolation:auto;mix-blend-mode:normal;color-interpolation:sRGB;color-interpolation-filters:linearRGB;solid-color:#000000;solid-opacity:1;vector-effect:none;fill:#1E1E2E;fill-opacity:1;fill-rule:nonzero;stroke:none;stroke-width:0.750517;stroke-linecap:round;stroke-linejoin:round;stroke-miterlimit:4;stroke-dasharray:none;stroke-dashoffset:0;stroke-opacity:1;color-rendering:auto;image-rendering:auto;shape-rendering:auto;text-rendering:auto;enable-background:accumulate"
     d="M 12.696289,5.5102544 C 11.581114,5.4765647 10.468363,5.7494 9.4868165,6.3159184 7.9911258,7.1791844 6.9451616,8.6386852 6.6186523,10.325196 a 0.37747668,0.37344299 15 1 0 0.7397461,0.145019 C 7.6441704,8.994126 8.5571338,7.7160082 9.8662108,6.9604496 11.175286,6.2048917 12.75261,6.0466435 14.194824,6.5253911 a 0.37761164,0.37357652 15 1 0 0.23584,-0.7089844 C 14.224689,5.7480322 14.018005,5.6921736 13.808106,5.6464848 13.440781,5.5665305 13.068014,5.5214842 12.696289,5.5102544 Z m -0.433593,2.2412108 c -0.242349,0.016822 -0.483837,0.058298 -0.720704,0.1230473 -0.135351,0.036998 -0.268139,0.081989 -0.399902,0.1347652 a 0.37347008,0.37195269 75 1 0 0.276856,0.692871 c 0.843757,-0.33795 1.796087,-0.268173 2.585448,0.1860353 0.789362,0.4542075 1.327984,1.242322 1.464844,2.144531 a 0.37356547,0.37204769 75 1 0 0.733887,-0.111328 C 16.032142,9.7942507 15.358221,8.8052362 14.372071,8.2377937 13.72491,7.8654097 12.989741,7.7009992 12.262696,7.7514652 Z M 9.1674807,11.631836 A 0.37505662,0.37204769 75 0 0 9.057617,11.646484 0.37505662,0.37204769 75 0 0 8.7924808,12.0625 c 0.1721527,1.131501 0.8470035,2.124773 1.8339842,2.695313 0.986981,0.570539 2.17894,0.65563 3.23291,0.23291 a 0.37496084,0.37195269 75 1 0 -0.27832,-0.695801 c -0.843646,0.338365 -1.795423,0.269188 -2.585449,-0.1875 C 10.205579,13.650735 9.6656285,12.858343 9.5278318,11.952637 A 0.37505662,0.37204769 75 0 0 9.1674807,11.631836 Z m 8.8344723,0.583008 a 0.37747412,0.37417818 15 0 0 -0.357422,0.303223 c -0.286537,1.478941 -1.199665,2.759497 -2.509277,3.51709 -1.309614,0.757593 -2.88792,0.916902 -4.330078,0.437988 a 0.3775712,0.37427441 15 1 0 -0.23584,0.710449 c 1.647743,0.547186 3.450473,0.363149 4.946777,-0.502441 1.496305,-0.86559 2.542247,-2.329763 2.869629,-4.019532 a 0.37747412,0.37417818 15 0 0 -0.272461,-0.433593 0.37747412,0.37417818 15 0 0 -0.111328,-0.01319 z" />
</svg>

<svg xmlns="http://www.w3.org/2000/svg" width="24" height="24">
    <defs>
        <filter id="a" width="1.047" height="1.047" x="-.024" y="-.024" style="color-interpolation-filters:sRGB">
            <feGaussianBlur stdDeviation=".167"/>
        </filter>
        <filter id="b" width="1.145" height="1.143" x="-.073" y="-.071" style="color-interpolation-filters:sRGB">
            <feGaussianBlur stdDeviation=".475"/>
        </filter>
    </defs>
    <circle cx="13" cy="12" r="8.5" style="opacity:.1;fill:#000;fill-opacity:1;stroke:none;stroke-width:1.7;stroke-linecap:round;stroke-linejoin:round;stroke-miterlimit:4;stroke-dasharray:none;stroke-opacity:1;filter:url(#a)"/>
    <circle cx="12.5" cy="11.5" r="8.5" style="fill:#1e1e2e;fill-opacity:1;stroke:none;stroke-width:1.7;stroke-linecap:round;stroke-linejoin:round;stroke-miterlimit:4;stroke-dasharray:none;stroke-opacity:1"/>
    <circle cx="12.5" cy="11.5" r="7.5" style="fill:#cba6f7;fill-opacity:1;stroke:none;stroke-width:1.5;stroke-linecap:round;stroke-linejoin:round;stroke-miterlimit:4;stroke-dasharray:none;stroke-opacity:1"/>
    <path d="M20 11.5a7.5 7.5 0 0 1-7.5 7.5A7.5 7.5 0 0 1 5 11.5 7.5 7.5 0 0 1 12.5 4a7.5 7.5 0 0 1 7.5 7.5" style="opacity:.2;fill:#cba6f7;fill-opacity:1;stroke:none;stroke-width:2.72727;stroke-linecap:round;stroke-linejoin:round;stroke-miterlimit:4;stroke-dasharray:none;stroke-opacity:1"/>
    <path d="M16.761 8.514a8.07 8.07 0 0 0-4.279 1.074 7.9 7.9 0 0 0-3.824 5.345.503.498 15 1 0 .986.194 6.92 6.92 0 0 1 3.344-4.68 7.1 7.1 0 0 1 5.771-.58.503.498 15 1 0 .315-.945 8 8 0 0 0-2.313-.408m-.578 2.988a5 5 0 0 0-1.494.344.498.496 75 1 0 .37.923 3.96 3.96 0 0 1 3.447.248 3.99 3.99 0 0 1 1.953 2.86.498.496 75 1 0 .978-.149 5 5 0 0 0-2.441-3.578 4.95 4.95 0 0 0-2.813-.648m-4.127 5.174a.5.496 75 0 0-.146.02.5.496 75 0 0-.354.554 5.02 5.02 0 0 0 2.446 3.594 4.94 4.94 0 0 0 4.31.31.5.496 75 1 0-.37-.928 3.95 3.95 0 0 1-3.448-.25 4.01 4.01 0 0 1-1.957-2.873.5.496 75 0 0-.48-.427m11.78.777a.503.499 15 0 0-.477.404 6.94 6.94 0 0 1-3.346 4.69 7.08 7.08 0 0 1-5.773.584.503.499 15 1 0-.315.947 8.1 8.1 0 0 0 6.596-.67 7.94 7.94 0 0 0 3.826-5.36.503.499 15 0 0-.363-.577.503.499 15 0 0-.148-.018" style="color:#000;font-style:normal;font-variant:normal;font-weight:400;font-stretch:normal;font-size:medium;line-height:normal;font-family:sans-serif;font-variant-ligatures:normal;font-variant-position:normal;font-variant-caps:normal;font-variant-numeric:normal;font-variant-alternates:normal;font-feature-settings:normal;text-indent:0;text-align:start;text-decoration:none;text-decoration-line:none;text-decoration-style:solid;text-decoration-color:#000;letter-spacing:normal;word-spacing:normal;text-transform:none;writing-mode:lr-tb;direction:ltr;text-orientation:mixed;dominant-baseline:auto;baseline-shift:baseline;text-anchor:start;white-space:normal;shape-padding:0;clip-rule:nonzero;display:inline;overflow:visible;visibility:visible;opacity:.2;isolation:auto;mix-blend-mode:normal;color-interpolation:sRGB;color-interpolation-filters:linearRGB;solid-color:#000;solid-opacity:1;vector-effect:none;fill:#000;fill-opacity:1;fill-rule:nonzero;stroke:none;stroke-width:1.00069;stroke-linecap:round;stroke-linejoin:round;stroke-miterlimit:4;stroke-dasharray:none;stroke-dashoffset:0;stroke-opacity:1;filter:url(#b);color-rendering:auto;image-rendering:auto;shape-rendering:auto;text-rendering:auto;enable-background:accumulate" transform="matrix(.75 0 0 .75 .5 -.5)"/>
    <path d="M12.696 5.51a6.05 6.05 0 0 0-3.21.806 5.93 5.93 0 0 0-2.867 4.01.377.373 15 1 0 .74.144 5.2 5.2 0 0 1 2.507-3.51 5.32 5.32 0 0 1 4.329-.435.378.374 15 1 0 .236-.709 6 6 0 0 0-1.735-.306m-.433 2.241a3.7 3.7 0 0 0-1.12.258.373.372 75 1 0 .276.693 2.97 2.97 0 0 1 2.585.186 2.99 2.99 0 0 1 1.465 2.145.374.372 75 1 0 .734-.112 3.74 3.74 0 0 0-1.83-2.683 3.7 3.7 0 0 0-2.11-.487m-3.096 3.88a.375.372 75 0 0-.11.015.375.372 75 0 0-.265.416 3.77 3.77 0 0 0 1.834 2.696 3.71 3.71 0 0 0 3.233.233.375.372 75 1 0-.278-.696 2.96 2.96 0 0 1-2.585-.188 3.01 3.01 0 0 1-1.468-2.154.375.372 75 0 0-.36-.321m8.835.584a.377.374 15 0 0-.357.303 5.2 5.2 0 0 1-2.51 3.517 5.3 5.3 0 0 1-4.33.438.378.374 15 1 0-.236.71 6.07 6.07 0 0 0 4.947-.502 5.95 5.95 0 0 0 2.87-4.02.377.374 15 0 0-.273-.433.377.374 15 0 0-.111-.013" style="color:#000;font-style:normal;font-variant:normal;font-weight:400;font-stretch:normal;font-size:medium;line-height:normal;font-family:sans-serif;font-variant-ligatures:normal;font-variant-position:normal;font-variant-caps:normal;font-variant-numeric:normal;font-variant-alternates:normal;font-feature-settings:normal;text-indent:0;text-align:start;text-decoration:none;text-decoration-line:none;text-decoration-style:solid;text-decoration-color:#000;letter-spacing:normal;word-spacing:normal;text-transform:none;writing-mode:lr-tb;direction:ltr;text-orientation:mixed;dominant-baseline:auto;baseline-shift:baseline;text-anchor:start;white-space:normal;shape-padding:0;clip-rule:nonzero;display:inline;overflow:visible;visibility:visible;isolation:auto;mix-blend-mode:normal;color-interpolation:sRGB;color-interpolation-filters:linearRGB;solid-color:#000;solid-opacity:1;vector-effect:none;fill:#1e1e2e;fill-opacity:1;fill-rule:nonzero;stroke:none;stroke-width:.750517;stroke-linecap:round;stroke-linejoin:round;stroke-miterlimit:4;stroke-dasharray:none;stroke-dashoffset:0;stroke-opacity:1;color-rendering:auto;image-rendering:auto;shape-rendering:auto;text-rendering:auto;enable-background:accumulate"/>
</svg>
